icons/model-edit-16.svg

<?xml version="1.0" encoding="UTF-8"?><svg id="icons" xmlns="http://www.w3.org/2000/svg" viewBox="0 0 16 16"><defs><style>.cls-1{fill:none;}.cls-1,.cls-2{stroke-width:0px;}</style></defs><path class="cls-2" d="M13.5,6c-1.20721,0-2.2171.86005-2.4494,2h-2.0506v-1h-2.29297l-2.12347-2.12347c.26196-.3952.41644-.86774.41644-1.37653,0-1.37891-1.12158-2.5-2.5-2.5S0,2.12109,0,3.5s1.12158,2.5,2.5,2.5c.50867,0,.98126-.15448,1.37653-.41644l2.12347,2.12347v1.55469l-2.14368,2.14368c-.39136-.25427-.85583-.4054-1.35632-.4054-1.37842,0-2.5,1.12109-2.5,2.5s1.12158,2.5,2.5,2.5,2.45-1.12109,2.45-2.5c0-.51703-.10765-.9978-.37743-1.39679l2.10321-2.10321h2.32422v-1h2.0506c.07678.37683.245.71814.47076,1.01288l.70276-.71405c.00238-.00238.00562-.0033.008-.00568-.14484-.23071-.23212-.50122-.23212-.79315,0-.82715.67285-1.5,1.5-1.5.5907,0,1.09772.34613,1.34222.84357.06006.03851.12598.0672.17731.11835l.93982.94025c.02155-.13171.04065-.2644.04065-.40216,0-1.37891-1.12158-2.5-2.5-2.5ZM2.5,5c-.82715,0-1.5-.67285-1.5-1.5s.67285-1.5,1.5-1.5,1.5.67285,1.5,1.5-.67285,1.5-1.5,1.5ZM2.5,15c-.82715,0-1.5-.67285-1.5-1.5s.67285-1.5,1.5-1.5,1.5.67285,1.5,1.5-.67285,1.5-1.5,1.5ZM8,9h-1v-1h1v1ZM12.93719,10l1.06281,1.04907-4,3.95093-2,1,1-2,3.93719-4ZM14.31201,8.66919l.99738.99731-.64526.64758-.99738-.99731.64526-.64758Z"/><rect class="cls-1" width="16" height="16"/></svg>

<svg xmlns="http://www.w3.org/2000/svg" viewBox="0 0 16 16"><path d="M13.5 6c-1.207 0-2.217.86-2.45 2H9V7H6.707L4.584 4.877C4.846 4.48 5 4.009 5 3.5 5 2.121 3.878 1 2.5 1S0 2.121 0 3.5 1.122 6 2.5 6c.509 0 .981-.154 1.377-.416L6 7.707v1.555l-2.144 2.143A2.481 2.481 0 0 0 2.5 11C1.122 11 0 12.121 0 13.5S1.122 16 2.5 16s2.45-1.121 2.45-2.5c0-.517-.108-.998-.377-1.397L6.676 10H9V9h2.05c.077.377.246.718.471 1.013l.703-.714c.002-.003.006-.003.008-.006A1.486 1.486 0 0 1 12 8.5c0-.827.673-1.5 1.5-1.5.59 0 1.098.346 1.342.844.06.038.126.067.178.118l.94.94c.02-.132.04-.264.04-.402C16 7.121 14.878 6 13.5 6zm-11-1C1.673 5 1 4.327 1 3.5S1.673 2 2.5 2 4 2.673 4 3.5 3.327 5 2.5 5zm0 10c-.827 0-1.5-.673-1.5-1.5S1.673 12 2.5 12s1.5.673 1.5 1.5S3.327 15 2.5 15zM8 9H7V8h1v1zm4.937 1L14 11.05 10 15l-2 1 1-2 3.937-4zm1.375-1.33l.997.997-.645.647-.997-.997.645-.648z" stroke-width="0"/><path stroke-width="0" fill="none" d="M0 0h16v16H0z"/></svg>
